!!!OTL: A-Tisket A-Tasket
!!!COM: unknown
!!!ODT: unknown
!!!YOR: The Folksong Fake Book
!!!YOY: 2000
!!!AST: Children's song
!!!YEC: Brian Luke, 2001
**kern	**harm
*k[]	*k[]
*M2/4	*M2/4
*C:	*C:
*>A	*>A
8e	.
=1	=1
4g	I
8e	.
8f	.
=2	=2
4g	.
8e	.
8f	.
=3	=3
8g	.
8g	.
8e	.
8a	.
=4	=4
4g	.
8e	.
8e	.
=5	=5
8f	V7
8f	.
8d	.
8d	.
=6	=6
8f	.
8f	.
8d	.
8d	.
=7	=7
8g	.
8f	.
8e	.
8d	.
=8	=8
4e	I;
8c	.
*>A'	*>A'
8c	.
=9	=9
4g	I
8e	.
8e	.
=10	=10
4g	.
8e	.
8e	.
=11	=11
8g	.
8g	.
8e	.
8a	.
=12	=12
4g	.
8e	.
8e	.
=13	=13
8f	V7
8f	.
4d	.
=14	=14
8f	.
8f	.
8d	.
8d	.
=15	=15
8g	.
8f	.
8e	.
8d	.
=16	=16
4e	I;
4c	.
*-	*-
